Newaita-dark/.places-gray/16/folder-photos.svg

<svg xmlns="http://www.w3.org/2000/svg" xmlns:xlink="http://www.w3.org/1999/xlink" width="16px" height="16px" viewBox="0 0 16 16" version="1.1">
<defs>
<linearGradient id="linear0" gradientUnits="userSpaceOnUse" x1="254" y1="233.5" x2="254" y2="254.667007" gradientTransform="matrix(0.0312525,0,0,0.0312525,0,6.7195)">
<stop offset="0" style="stop-color:rgb(0%,0%,0%);stop-opacity:0.275;"/>
<stop offset="1" style="stop-color:rgb(0%,0%,0%);stop-opacity:0;"/>
</linearGradient>
<radialGradient id="radial0" gradientUnits="userSpaceOnUse" cx="450.908997" cy="189.578995" fx="450.908997" fy="189.578995" r="21.167" gradientTransform="matrix(0,-0.039065,-0.07032,0,27.057501,31.797501)">
<stop offset="0" style="stop-color:rgb(0%,0%,0%);stop-opacity:0.314;"/>
<stop offset="0.222" style="stop-color:rgb(0%,0%,0%);stop-opacity:0.275;"/>
<stop offset="1" style="stop-color:rgb(0%,0%,0%);stop-opacity:0;"/>
</radialGradient>
<radialGradient id="radial1" gradientUnits="userSpaceOnUse" cx="450.908997" cy="189.578995" fx="450.908997" fy="189.578995" r="21.167" gradientTransform="matrix(0,0.039065,0.07032,0,-11.181,-3.76375)">
<stop offset="0" style="stop-color:rgb(0%,0%,0%);stop-opacity:0.314;"/>
<stop offset="0.222" style="stop-color:rgb(0%,0%,0%);stop-opacity:0.275;"/>
<stop offset="1" style="stop-color:rgb(0%,0%,0%);stop-opacity:0;"/>
</radialGradient>
<radialGradient id="radial2" gradientUnits="userSpaceOnUse" cx="450.908997" cy="189.578995" fx="450.908997" fy="189.578995" r="21.167" gradientTransform="matrix(0,-0.039065,0.07032,0,-11.181,31.797501)">
<stop offset="0" style="stop-color:rgb(0%,0%,0%);stop-opacity:0.314;"/>
<stop offset="0.222" style="stop-color:rgb(0%,0%,0%);stop-opacity:0.275;"/>
<stop offset="1" style="stop-color:rgb(0%,0%,0%);stop-opacity:0;"/>
</radialGradient>
<radialGradient id="radial3" gradientUnits="userSpaceOnUse" cx="450.908997" cy="189.578995" fx="450.908997" fy="189.578995" r="21.167" gradientTransform="matrix(0,0.039065,-0.07032,0,27.057501,-3.76375)">
<stop offset="0" style="stop-color:rgb(0%,0%,0%);stop-opacity:0.314;"/>
<stop offset="0.222" style="stop-color:rgb(0%,0%,0%);stop-opacity:0.275;"/>
<stop offset="1" style="stop-color:rgb(0%,0%,0%);stop-opacity:0;"/>
</radialGradient>
<linearGradient id="linear1" gradientUnits="userSpaceOnUse" x1="254" y1="-147.5" x2="254" y2="-31.083" gradientTransform="matrix(0.0312525,0,0,0.0312525,0,6.7195)">
<stop offset="0" style="stop-color:rgb(64.313728%,64.313728%,64.313728%);stop-opacity:0;"/>
<stop offset="1" style="stop-color:rgb(100%,100%,100%);stop-opacity:0.196;"/>
</linearGradient>
<linearGradient id="linear2" gradientUnits="userSpaceOnUse" x1="254" y1="233.5" x2="254" y2="-105.167" gradientTransform="matrix(0.0312525,0,0,0.0312525,0,6.7195)">
<stop offset="0" style="stop-color:rgb(34.509805%,34.509805%,34.509805%);stop-opacity:0;"/>
<stop offset="1" style="stop-color:rgb(98.039216%,98.039216%,98.039216%);stop-opacity:0.196;"/>
</linearGradient>
<linearGradient id="linear3" gradientUnits="userSpaceOnUse" x1="254" y1="-147.5" x2="254" y2="233.5" gradientTransform="matrix(0.0312525,0,0,0.0312525,0,6.7195)">
<stop offset="0" style="stop-color:rgb(64.313728%,64.313728%,64.313728%);stop-opacity:0;"/>
<stop offset="1" style="stop-color:rgb(100%,100%,100%);stop-opacity:0.196;"/>
</linearGradient>
</defs>
<g id="surface1">
<path style=" stroke:none;fill-rule:nonzero;fill:url(#linear0);" d="M 1.984375 14.015625 L 13.890625 14.015625 L 13.890625 14.679688 L 1.984375 14.679688 Z M 1.984375 14.015625 "/>
<path style=" stroke:none;fill-rule:nonzero;fill:url(#radial0);" d="M 13.890625 14.015625 L 15.214844 14.015625 L 15.214844 13.355469 L 13.890625 13.355469 Z M 13.890625 14.015625 "/>
<path style=" stroke:none;fill-rule:nonzero;fill:url(#radial1);" d="M 1.984375 14.015625 L 0.660156 14.015625 L 0.660156 14.679688 L 1.984375 14.679688 Z M 1.984375 14.015625 "/>
<path style=" stroke:none;fill-rule:nonzero;fill:url(#radial2);" d="M 1.984375 14.015625 L 0.660156 14.015625 L 0.660156 13.355469 L 1.984375 13.355469 Z M 1.984375 14.015625 "/>
<path style=" stroke:none;fill-rule:nonzero;fill:url(#radial3);" d="M 13.890625 14.015625 L 15.214844 14.015625 L 15.214844 14.679688 L 13.890625 14.679688 Z M 13.890625 14.015625 "/>
<path style=" stroke:none;fill-rule:nonzero;fill:rgb(45.882353%,45.882353%,45.882353%);fill-opacity:1;" d="M 3.640625 2.109375 L 14.386719 2.109375 C 14.5625 2.109375 14.730469 2.179688 14.855469 2.304688 C 14.980469 2.425781 15.050781 2.597656 15.050781 2.773438 L 15.050781 5.253906 C 15.050781 5.617188 14.753906 5.914062 14.386719 5.914062 L 3.640625 5.914062 C 3.273438 5.914062 2.976562 5.617188 2.976562 5.253906 L 2.976562 2.773438 C 2.976562 2.40625 3.273438 2.109375 3.640625 2.109375 Z M 3.640625 2.109375 "/>
<path style=" stroke:none;fill-rule:nonzero;fill:url(#linear1);" d="M 3.640625 2.109375 L 14.386719 2.109375 C 14.5625 2.109375 14.730469 2.179688 14.855469 2.304688 C 14.980469 2.425781 15.050781 2.597656 15.050781 2.773438 L 15.050781 5.253906 C 15.050781 5.617188 14.753906 5.914062 14.386719 5.914062 L 3.640625 5.914062 C 3.273438 5.914062 2.976562 5.617188 2.976562 5.253906 L 2.976562 2.773438 C 2.976562 2.40625 3.273438 2.109375 3.640625 2.109375 Z M 3.640625 2.109375 "/>
<path style=" stroke:none;fill-rule:nonzero;fill:rgb(90.196079%,90.196079%,90.196079%);fill-opacity:0.588;" d="M 3.640625 2.109375 C 3.464844 2.109375 3.292969 2.179688 3.167969 2.300781 C 3.046875 2.425781 2.976562 2.597656 2.976562 2.773438 L 2.976562 2.851562 C 2.976562 2.679688 3.046875 2.507812 3.171875 2.386719 C 3.292969 2.261719 3.464844 2.191406 3.640625 2.191406 L 14.386719 2.191406 C 14.5625 2.191406 14.730469 2.261719 14.855469 2.386719 C 14.980469 2.507812 15.050781 2.679688 15.050781 2.851562 L 15.050781 2.773438 C 15.050781 2.597656 14.980469 2.425781 14.855469 2.300781 C 14.730469 2.179688 14.5625 2.109375 14.386719 2.109375 Z M 3.640625 2.109375 "/>
<path style=" stroke:none;fill-rule:nonzero;fill:rgb(12.941177%,12.941177%,12.941177%);fill-opacity:1;" d="M 3.640625 2.0625 C 3.246094 2.0625 2.929688 2.378906 2.929688 2.773438 L 2.929688 5.253906 C 2.929688 5.441406 3.003906 5.621094 3.136719 5.753906 C 3.269531 5.886719 3.449219 5.960938 3.640625 5.960938 L 14.386719 5.960938 C 14.574219 5.960938 14.753906 5.886719 14.890625 5.753906 C 15.023438 5.621094 15.097656 5.441406 15.097656 5.253906 L 15.097656 2.773438 C 15.097656 2.378906 14.777344 2.0625 14.386719 2.0625 Z M 3.640625 2.15625 L 14.386719 2.15625 C 14.550781 2.15625 14.707031 2.21875 14.824219 2.335938 C 14.9375 2.449219 15.003906 2.609375 15.003906 2.769531 L 15.003906 5.253906 C 15.003906 5.414062 14.9375 5.570312 14.824219 5.6875 C 14.707031 5.800781 14.550781 5.867188 14.386719 5.867188 L 3.640625 5.867188 C 3.476562 5.867188 3.320312 5.800781 3.203125 5.6875 C 3.085938 5.570312 3.023438 5.414062 3.023438 5.253906 L 3.023438 2.773438 C 3.023438 2.609375 3.085938 2.453125 3.203125 2.335938 C 3.316406 2.21875 3.476562 2.15625 3.636719 2.15625 Z M 3.640625 2.15625 "/>
<path style=" stroke:none;fill-rule:nonzero;fill:rgb(74.117649%,74.117649%,74.117649%);fill-opacity:1;" d="M 1.324219 3.433594 C 1.148438 3.433594 0.980469 3.5 0.855469 3.625 C 0.730469 3.75 0.660156 3.917969 0.660156 4.09375 L 0.660156 13.355469 C 0.660156 13.53125 0.730469 13.699219 0.855469 13.824219 C 0.980469 13.949219 1.148438 14.015625 1.324219 14.015625 L 14.554688 14.015625 C 14.730469 14.015625 14.898438 13.949219 15.023438 13.824219 C 15.144531 13.699219 15.214844 13.53125 15.214844 13.355469 L 15.214844 5.085938 L 6.285156 5.085938 C 6.109375 5.085938 5.941406 5.015625 5.816406 4.894531 C 5.691406 4.769531 5.621094 4.601562 5.621094 4.425781 L 5.621094 3.433594 Z M 1.324219 3.433594 "/>
<path style=" stroke:none;fill-rule:nonzero;fill:url(#linear2);" d="M 1.324219 3.433594 C 1.148438 3.433594 0.980469 3.5 0.855469 3.625 C 0.730469 3.75 0.660156 3.917969 0.660156 4.09375 L 0.660156 13.355469 C 0.660156 13.53125 0.730469 13.699219 0.855469 13.824219 C 0.980469 13.949219 1.148438 14.015625 1.324219 14.015625 L 14.554688 14.015625 C 14.730469 14.015625 14.898438 13.949219 15.023438 13.824219 C 15.144531 13.699219 15.214844 13.53125 15.214844 13.355469 L 15.214844 5.085938 L 6.285156 5.085938 C 6.109375 5.085938 5.941406 5.015625 5.816406 4.894531 C 5.691406 4.769531 5.621094 4.601562 5.621094 4.425781 L 5.621094 3.433594 Z M 1.324219 3.433594 "/>
<path style=" stroke:none;fill-rule:nonzero;fill:rgb(0%,0%,0%);fill-opacity:0.196;" d="M 1.324219 14.015625 C 1.148438 14.015625 0.980469 13.949219 0.855469 13.824219 C 0.730469 13.699219 0.660156 13.53125 0.660156 13.355469 L 0.660156 13.273438 C 0.660156 13.449219 0.730469 13.617188 0.855469 13.742188 C 0.980469 13.863281 1.148438 13.933594 1.324219 13.933594 L 14.554688 13.933594 C 14.730469 13.933594 14.898438 13.863281 15.023438 13.742188 C 15.144531 13.617188 15.214844 13.449219 15.214844 13.273438 L 15.214844 13.355469 C 15.214844 13.53125 15.144531 13.699219 15.023438 13.824219 C 14.898438 13.949219 14.730469 14.015625 14.554688 14.015625 Z M 1.324219 14.015625 "/>
<path style=" stroke:none;fill-rule:nonzero;fill:rgb(90.196079%,90.196079%,90.196079%);fill-opacity:0.937;" d="M 1.324219 3.433594 C 1.148438 3.433594 0.980469 3.5 0.855469 3.625 C 0.730469 3.75 0.660156 3.917969 0.660156 4.09375 L 0.660156 4.175781 C 0.660156 4 0.730469 3.832031 0.855469 3.707031 C 0.980469 3.585938 1.148438 3.515625 1.324219 3.515625 L 5.625 3.515625 L 5.625 3.433594 Z M 6.242188 5.128906 C 6.066406 5.128906 5.898438 5.058594 5.773438 4.933594 C 5.652344 4.808594 5.582031 4.640625 5.582031 4.464844 L 5.582031 4.382812 C 5.582031 4.558594 5.652344 4.726562 5.773438 4.851562 C 5.898438 4.976562 6.066406 5.046875 6.242188 5.046875 L 15.214844 5.046875 L 15.214844 5.128906 Z M 6.242188 5.128906 "/>
<path style=" stroke:none;fill-rule:nonzero;fill:rgb(12.941177%,12.941177%,12.941177%);fill-opacity:1;" d="M 1.324219 3.386719 C 1.136719 3.386719 0.953125 3.460938 0.820312 3.59375 C 0.6875 3.726562 0.613281 3.90625 0.613281 4.09375 L 0.613281 13.355469 C 0.613281 13.542969 0.6875 13.722656 0.820312 13.855469 C 0.953125 13.988281 1.136719 14.0625 1.324219 14.0625 L 14.554688 14.0625 C 14.742188 14.0625 14.921875 13.988281 15.054688 13.855469 C 15.1875 13.722656 15.261719 13.542969 15.261719 13.355469 L 15.261719 4.992188 L 6.285156 4.992188 C 6.121094 4.992188 5.964844 4.929688 5.847656 4.8125 C 5.734375 4.699219 5.667969 4.542969 5.671875 4.378906 L 5.671875 3.386719 Z M 1.324219 3.480469 L 5.578125 3.480469 L 5.578125 4.378906 C 5.574219 4.566406 5.652344 4.746094 5.785156 4.878906 C 5.917969 5.011719 6.097656 5.085938 6.285156 5.085938 L 15.167969 5.085938 L 15.167969 13.355469 C 15.167969 13.519531 15.105469 13.675781 14.988281 13.789062 C 14.875 13.90625 14.71875 13.96875 14.554688 13.96875 L 1.324219 13.96875 C 1.160156 13.96875 1.003906 13.90625 0.886719 13.789062 C 0.773438 13.675781 0.707031 13.519531 0.707031 13.355469 L 0.707031 4.09375 C 0.707031 3.929688 0.773438 3.773438 0.886719 3.660156 C 1.003906 3.542969 1.160156 3.480469 1.324219 3.480469 Z M 1.324219 3.480469 "/>
<path style=" stroke:none;fill-rule:nonzero;fill:rgb(45.882353%,45.882353%,45.882353%);fill-opacity:1;" d="M 7.28125 6.738281 C 7.195312 6.738281 7.109375 6.773438 7.046875 6.835938 C 6.984375 6.898438 6.949219 6.984375 6.953125 7.070312 L 6.953125 7.402344 L 5.628906 7.402344 C 5.539062 7.402344 5.457031 7.4375 5.394531 7.496094 C 5.332031 7.558594 5.296875 7.644531 5.296875 7.734375 L 5.296875 10.710938 C 5.296875 10.890625 5.445312 11.039062 5.628906 11.039062 L 5.960938 11.039062 C 5.960938 11.222656 6.105469 11.371094 6.289062 11.371094 L 9.597656 11.371094 C 9.683594 11.371094 9.769531 11.335938 9.832031 11.273438 C 9.894531 11.210938 9.929688 11.128906 9.929688 11.039062 L 10.257812 11.039062 C 10.347656 11.039062 10.429688 11.003906 10.492188 10.941406 C 10.554688 10.882812 10.589844 10.796875 10.589844 10.710938 L 10.589844 7.734375 C 10.589844 7.644531 10.554688 7.558594 10.492188 7.496094 C 10.429688 7.4375 10.347656 7.402344 10.257812 7.402344 L 8.9375 7.402344 L 8.9375 7.070312 C 8.9375 6.886719 8.789062 6.742188 8.605469 6.742188 Z M 7.941406 8.0625 C 8.292969 8.0625 8.632812 8.203125 8.878906 8.449219 C 9.128906 8.699219 9.265625 9.035156 9.265625 9.386719 C 9.265625 10.121094 8.675781 10.710938 7.941406 10.710938 C 7.210938 10.710938 6.621094 10.117188 6.621094 9.386719 C 6.621094 9.035156 6.757812 8.699219 7.007812 8.449219 C 7.253906 8.203125 7.59375 8.0625 7.945312 8.0625 Z M 7.941406 8.0625 "/>
<path style=" stroke:none;fill-rule:nonzero;fill:url(#linear3);" d="M 7.28125 6.738281 C 7.195312 6.738281 7.109375 6.773438 7.046875 6.835938 C 6.984375 6.898438 6.949219 6.984375 6.953125 7.070312 L 6.953125 7.402344 L 5.628906 7.402344 C 5.539062 7.402344 5.457031 7.4375 5.394531 7.496094 C 5.332031 7.558594 5.296875 7.644531 5.296875 7.734375 L 5.296875 10.710938 C 5.296875 10.890625 5.445312 11.039062 5.628906 11.039062 L 5.960938 11.039062 C 5.960938 11.222656 6.105469 11.371094 6.289062 11.371094 L 9.597656 11.371094 C 9.683594 11.371094 9.769531 11.335938 9.832031 11.273438 C 9.894531 11.210938 9.929688 11.128906 9.929688 11.039062 L 10.257812 11.039062 C 10.347656 11.039062 10.429688 11.003906 10.492188 10.941406 C 10.554688 10.882812 10.589844 10.796875 10.589844 10.710938 L 10.589844 7.734375 C 10.589844 7.644531 10.554688 7.558594 10.492188 7.496094 C 10.429688 7.4375 10.347656 7.402344 10.257812 7.402344 L 8.9375 7.402344 L 8.9375 7.070312 C 8.9375 6.886719 8.789062 6.742188 8.605469 6.742188 Z M 7.941406 8.0625 C 8.292969 8.0625 8.632812 8.203125 8.878906 8.449219 C 9.128906 8.699219 9.265625 9.035156 9.265625 9.386719 C 9.265625 10.121094 8.675781 10.710938 7.941406 10.710938 C 7.210938 10.710938 6.621094 10.117188 6.621094 9.386719 C 6.621094 9.035156 6.757812 8.699219 7.007812 8.449219 C 7.253906 8.203125 7.59375 8.0625 7.945312 8.0625 Z M 7.941406 8.0625 "/>
<path style=" stroke:none;fill-rule:nonzero;fill:rgb(12.941177%,12.941177%,12.941177%);fill-opacity:1;" d="M 7.28125 6.691406 C 7.074219 6.691406 6.902344 6.863281 6.902344 7.070312 L 6.902344 7.355469 L 5.628906 7.355469 C 5.421875 7.355469 5.25 7.523438 5.25 7.734375 L 5.25 10.710938 C 5.25 10.808594 5.289062 10.90625 5.363281 10.976562 C 5.433594 11.046875 5.527344 11.085938 5.628906 11.085938 L 5.921875 11.085938 C 5.945312 11.273438 6.097656 11.417969 6.289062 11.417969 L 9.597656 11.417969 C 9.789062 11.417969 9.941406 11.273438 9.964844 11.085938 L 10.257812 11.085938 C 10.359375 11.085938 10.457031 11.046875 10.527344 10.976562 C 10.597656 10.90625 10.636719 10.808594 10.636719 10.710938 L 10.636719 7.734375 C 10.636719 7.523438 10.46875 7.355469 10.257812 7.355469 L 8.984375 7.355469 L 8.984375 7.070312 C 8.984375 6.863281 8.8125 6.691406 8.605469 6.691406 Z M 7.28125 6.785156 L 8.605469 6.785156 C 8.679688 6.785156 8.753906 6.816406 8.808594 6.871094 C 8.859375 6.921875 8.890625 6.996094 8.890625 7.070312 L 8.890625 7.449219 L 10.257812 7.449219 C 10.335938 7.449219 10.40625 7.476562 10.460938 7.53125 C 10.515625 7.585938 10.542969 7.65625 10.542969 7.734375 L 10.542969 10.710938 C 10.542969 10.785156 10.515625 10.855469 10.460938 10.910156 C 10.40625 10.964844 10.335938 10.992188 10.257812 10.992188 L 9.882812 10.992188 L 9.882812 11.039062 C 9.882812 11.117188 9.851562 11.1875 9.800781 11.242188 C 9.746094 11.292969 9.671875 11.324219 9.597656 11.324219 L 6.289062 11.324219 C 6.214844 11.324219 6.140625 11.296875 6.089844 11.242188 C 6.035156 11.1875 6.003906 11.117188 6.003906 11.039062 L 6.003906 10.992188 L 5.628906 10.992188 C 5.554688 10.992188 5.480469 10.964844 5.425781 10.910156 C 5.375 10.855469 5.34375 10.785156 5.34375 10.710938 L 5.34375 7.734375 C 5.34375 7.65625 5.375 7.585938 5.425781 7.53125 C 5.480469 7.476562 5.554688 7.449219 5.628906 7.449219 L 6.996094 7.449219 L 6.996094 7.070312 C 6.996094 6.996094 7.027344 6.921875 7.082031 6.871094 C 7.132812 6.816406 7.207031 6.785156 7.28125 6.785156 Z M 7.941406 8.015625 C 7.578125 8.015625 7.230469 8.160156 6.972656 8.417969 C 6.71875 8.675781 6.574219 9.023438 6.574219 9.386719 C 6.574219 9.75 6.71875 10.097656 6.972656 10.355469 C 7.230469 10.613281 7.578125 10.757812 7.941406 10.753906 C 8.308594 10.757812 8.65625 10.613281 8.914062 10.355469 C 9.167969 10.097656 9.3125 9.75 9.3125 9.386719 C 9.3125 9.023438 9.167969 8.675781 8.914062 8.417969 C 8.65625 8.160156 8.308594 8.015625 7.941406 8.015625 Z M 7.941406 8.109375 C 8.28125 8.109375 8.609375 8.242188 8.847656 8.484375 C 9.085938 8.722656 9.222656 9.046875 9.21875 9.386719 C 9.21875 9.726562 9.085938 10.050781 8.847656 10.289062 C 8.605469 10.527344 8.28125 10.664062 7.941406 10.660156 C 7.605469 10.664062 7.28125 10.527344 7.039062 10.289062 C 6.800781 10.050781 6.667969 9.726562 6.667969 9.386719 C 6.667969 9.046875 6.800781 8.722656 7.039062 8.484375 C 7.28125 8.242188 7.605469 8.109375 7.941406 8.109375 Z M 7.941406 8.109375 "/>
</g>
</svg>

<svg xmlns="http://www.w3.org/2000/svg" width="16pt" height="16pt" viewBox="0 0 16 16"><defs><linearGradient id="a" gradientUnits="userSpaceOnUse" x1="254" y1="233.5" x2="254" y2="254.667" gradientTransform="matrix(.03125 0 0 .03125 0 6.72)"><stop offset="0" stop-opacity=".275"/><stop offset="1" stop-opacity="0"/></linearGradient><radialGradient id="b" gradientUnits="userSpaceOnUse" cx="450.909" cy="189.579" fx="450.909" fy="189.579" r="21.167" gradientTransform="matrix(0 -.03907 -.07032 0 27.058 31.798)"><stop offset="0" stop-opacity=".314"/><stop offset=".222" stop-opacity=".275"/><stop offset="1" stop-opacity="0"/></radialGradient><radialGradient id="c" gradientUnits="userSpaceOnUse" cx="450.909" cy="189.579" fx="450.909" fy="189.579" r="21.167" gradientTransform="matrix(0 .03907 .07032 0 -11.181 -3.764)"><stop offset="0" stop-opacity=".314"/><stop offset=".222" stop-opacity=".275"/><stop offset="1" stop-opacity="0"/></radialGradient><radialGradient id="d" gradientUnits="userSpaceOnUse" cx="450.909" cy="189.579" fx="450.909" fy="189.579" r="21.167" gradientTransform="matrix(0 -.03907 .07032 0 -11.181 31.798)"><stop offset="0" stop-opacity=".314"/><stop offset=".222" stop-opacity=".275"/><stop offset="1" stop-opacity="0"/></radialGradient><radialGradient id="e" gradientUnits="userSpaceOnUse" cx="450.909" cy="189.579" fx="450.909" fy="189.579" r="21.167" gradientTransform="matrix(0 .03907 -.07032 0 27.058 -3.764)"><stop offset="0" stop-opacity=".314"/><stop offset=".222" stop-opacity=".275"/><stop offset="1" stop-opacity="0"/></radialGradient><linearGradient id="f" gradientUnits="userSpaceOnUse" x1="254" y1="-147.5" x2="254" y2="-31.083" gradientTransform="matrix(.03125 0 0 .03125 0 6.72)"><stop offset="0" stop-color="#a4a4a4" stop-opacity="0"/><stop offset="1" stop-color="#fff" stop-opacity=".196"/></linearGradient><linearGradient id="g" gradientUnits="userSpaceOnUse" x1="254" y1="233.5" x2="254" y2="-105.167" gradientTransform="matrix(.03125 0 0 .03125 0 6.72)"><stop offset="0" stop-color="#585858" stop-opacity="0"/><stop offset="1" stop-color="#fafafa" stop-opacity=".196"/></linearGradient><linearGradient id="h" gradientUnits="userSpaceOnUse" x1="254" y1="-147.5" x2="254" y2="233.5" gradientTransform="matrix(.03125 0 0 .03125 0 6.72)"><stop offset="0" stop-color="#a4a4a4" stop-opacity="0"/><stop offset="1" stop-color="#fff" stop-opacity=".196"/></linearGradient></defs><path d="M1.984 14.016h11.907v.664H1.984zm0 0" fill="url(#a)"/><path d="M13.89 14.016h1.325v-.66H13.89zm0 0" fill="url(#b)"/><path d="M1.984 14.016H.66v.664h1.324zm0 0" fill="url(#c)"/><path d="M1.984 14.016H.66v-.66h1.324zm0 0" fill="url(#d)"/><path d="M13.89 14.016h1.325v.664H13.89zm0 0" fill="url(#e)"/><path d="M3.637 2.11h10.75c.367 0 .664.296.664.66v2.48a.664.664 0 0 1-.664.664H3.637a.663.663 0 0 1-.66-.664V2.77c0-.364.296-.66.66-.66zm0 0" fill="#757575"/><path d="M3.637 2.11h10.75c.367 0 .664.296.664.66v2.48a.664.664 0 0 1-.664.664H3.637a.663.663 0 0 1-.66-.664V2.77c0-.364.296-.66.66-.66zm0 0" fill="url(#f)"/><path d="M3.637 2.11a.662.662 0 0 0-.66.66v.085c0-.367.296-.664.66-.664h10.75c.367 0 .664.297.664.664V2.77a.663.663 0 0 0-.664-.66zm0 0" fill="#e6e6e6" fill-opacity=".588"/><path d="M3.637 2.063a.707.707 0 0 0-.707.707v2.48c0 .395.316.71.707.71h10.75c.394 0 .71-.315.71-.71V2.77a.708.708 0 0 0-.71-.708zm0 .093h10.75c.343 0 .617.274.617.614v2.48a.614.614 0 0 1-.617.617H3.637a.613.613 0 0 1-.614-.617V2.77c0-.34.274-.614.614-.614zm0 0" fill="#212121"/><path d="M1.324 3.434a.66.66 0 0 0-.664.66v9.261c0 .368.297.66.664.66h13.23c.368 0 .66-.292.66-.66v-8.27H6.286a.66.66 0 0 1-.664-.66v-.991zm0 0" fill="#bdbdbd"/><path d="M1.324 3.434a.66.66 0 0 0-.664.66v9.261c0 .368.297.66.664.66h13.23c.368 0 .66-.292.66-.66v-8.27H6.286a.66.66 0 0 1-.664-.66v-.991zm0 0" fill="url(#g)"/><path d="M1.324 14.016a.66.66 0 0 1-.664-.66v-.083c0 .368.297.66.664.66h13.23c.368 0 .66-.292.66-.66v.082c0 .368-.292.66-.66.66zm0 0" fill-opacity=".196"/><path d="M1.324 3.434a.66.66 0 0 0-.664.66v.082a.66.66 0 0 1 .664-.66h4.297v-.082zm0 0M6.242 5.129a.66.66 0 0 1-.66-.664v-.082a.66.66 0 0 0 .66.664h8.973v.082zm0 0" fill="#e6e6e6" fill-opacity=".937"/><path d="M1.324 3.387a.708.708 0 0 0-.71.707v9.261c0 .391.316.707.71.707h13.23c.391 0 .708-.316.708-.707V4.992H6.285a.613.613 0 0 1-.617-.613v-.992zm0 .093h4.25v.899c0 .39.32.707.711.707h8.883v8.27c0 .34-.273.613-.613.613H1.325a.613.613 0 0 1-.618-.614V4.094c0-.34.273-.614.617-.614zm0 0" fill="#212121"/><path d="M7.281 6.738a.328.328 0 0 0-.328.332v.332H5.63a.332.332 0 0 0-.332.332v2.977c0 .184.148.328.332.328h.332c0 .184.144.332.328.332h3.309a.332.332 0 0 0 .332-.332h.328a.328.328 0 0 0 .332-.328V7.734a.332.332 0 0 0-.332-.332h-1.32V7.07a.332.332 0 0 0-.333-.332zm.664 1.324c.73 0 1.32.59 1.32 1.325a1.32 1.32 0 0 1-1.32 1.324 1.32 1.32 0 0 1-1.324-1.324c0-.735.59-1.325 1.324-1.325zm0 0" fill="#757575"/><path d="M7.281 6.738a.328.328 0 0 0-.328.332v.332H5.63a.332.332 0 0 0-.332.332v2.977c0 .184.148.328.332.328h.332c0 .184.144.332.328.332h3.309a.332.332 0 0 0 .332-.332h.328a.328.328 0 0 0 .332-.328V7.734a.332.332 0 0 0-.332-.332h-1.32V7.07a.332.332 0 0 0-.333-.332zm.664 1.324c.73 0 1.32.59 1.32 1.325a1.32 1.32 0 0 1-1.32 1.324 1.32 1.32 0 0 1-1.324-1.324c0-.735.59-1.325 1.324-1.325zm0 0" fill="url(#h)"/><path d="M7.281 6.691a.378.378 0 0 0-.375.38v.284H5.63a.38.38 0 0 0-.379.38v2.976c0 .207.172.375.379.375h.293a.372.372 0 0 0 .367.332h3.309a.372.372 0 0 0 .367-.332h.293c.21 0 .379-.168.379-.375V7.734a.377.377 0 0 0-.38-.379H8.985V7.07a.382.382 0 0 0-.379-.379zm0 .094h1.324c.157 0 .286.13.286.285v.38h1.367c.16 0 .285.124.285.284v2.977a.281.281 0 0 1-.285.281h-.375v.047c0 .16-.13.285-.285.285H6.289a.281.281 0 0 1-.281-.285v-.047h-.38a.281.281 0 0 1-.284-.281V7.734c0-.16.125-.285.285-.285H7V7.07c0-.156.125-.285.281-.285zm.664 1.23a1.37 1.37 0 1 0-.001 2.741 1.37 1.37 0 0 0 .001-2.74zm0 .094c.707 0 1.274.57 1.274 1.278 0 .707-.567 1.277-1.274 1.277-.71 0-1.277-.57-1.277-1.277s.566-1.278 1.277-1.278zm0 0" fill="#212121"/></svg>
